svgs/generic_icon.svg

<svg xmlns="http://www.w3.org/2000/svg" viewBox="0 0 192 192"><path d="M16.942 165.639c1.418-15.601 2.95-24.17 6.812-38.089 6.684-24.09 17.049-43.904 30.784-58.847.729-.793.092-3.16-4.586-17.039a7332.785 7332.785 0 0 1-6.19-18.42c-.417-1.266-1.022-2.924-1.344-3.684-1.943-4.591-.849-11.155 2.147-12.883 3.527-2.032 5.138.341 9.376 13.804.717 2.28 1.872 5.857 2.566 7.949.694 2.093 2.567 7.817 4.162 12.721 2.405 7.394 3.08 8.838 3.955 8.46.58-.25 3.19-1.677 5.8-3.171 9.404-5.382 12.623-6.157 25.576-6.157 12.953 0 16.172.775 25.576 6.157 2.61 1.494 5.22 2.917 5.8 3.162 1.068.452 1.36-.301 7.702-19.825 6.462-19.897 7.232-21.898 8.883-23.092 3.143-2.274 6.369 1.37 6.332 7.155-.017 2.686-1.483 7.756-6.847 23.68-5.854 17.379-6.705 20.393-5.981 21.183 8.973 9.796 17.331 22.835 22.56 35.196 5.871 13.879 10.881 31.381 13.295 46.448.434 2.712 1.215 9.593 1.735 15.292L176 176H16Zm47.242-27.235c3.093-2.892 4.859-9.828 4.16-16.338-.449-4.182-3.504-10.117-5.926-11.513-7.302-4.209-13.952 10.137-10.265 22.144 2.243 7.304 7.602 9.846 12.031 5.707Zm73.347-.78c4.295-5.601 4.391-18.307.184-24.489-3.447-5.067-8.049-4.466-11.463 1.497-6.331 11.057-1.002 28.162 7.905 25.375 1.119-.35 2.637-1.422 3.374-2.383Z"/></svg>

<svg
    xmlns="http://www.w3.org/2000/svg"
    viewBox="0 0 192 192"
    id="vector">
    <path
        id="path"
        d="M 16.942 165.639 C 18.36 150.038 19.892 141.469 23.754 127.55 C 30.438 103.46 40.803 83.646 54.538 68.703 C 55.267 67.91 54.63 65.543 49.952 51.664 C 46.965 42.799 44.179 34.51 43.762 33.244 C 43.345 31.978 42.74 30.32 42.418 29.56 C 40.475 24.969 41.569 18.405 44.565 16.677 C 48.092 14.645 49.703 17.018 53.941 30.481 C 54.658 32.761 55.813 36.338 56.507 38.43 C 57.201 40.523 59.074 46.247 60.669 51.151 C 63.074 58.545 63.749 59.989 64.624 59.611 C 65.204 59.361 67.814 57.934 70.424 56.44 C 79.828 51.058 83.047 50.283 96 50.283 C 108.953 50.283 112.172 51.058 121.576 56.44 C 124.186 57.934 126.796 59.357 127.376 59.602 C 128.444 60.054 128.736 59.301 135.078 39.777 C 141.54 19.88 142.31 17.879 143.961 16.685 C 147.104 14.411 150.33 18.055 150.293 23.84 C 150.276 26.526 148.81 31.596 143.446 47.52 C 137.592 64.899 136.741 67.913 137.465 68.703 C 146.438 78.499 154.796 91.538 160.025 103.899 C 165.896 117.778 170.906 135.28 173.32 150.347 C 173.754 153.059 174.535 159.94 175.055 165.639 L 176 176 L 16 176 Z M 64.184 138.404 C 67.277 135.512 69.043 128.576 68.344 122.066 C 67.895 117.884 64.84 111.949 62.418 110.553 C 55.116 106.344 48.466 120.69 52.153 132.697 C 54.396 140.001 59.755 142.543 64.184 138.404 Z M 137.531 137.624 C 141.826 132.023 141.922 119.317 137.715 113.135 C 134.268 108.068 129.666 108.669 126.252 114.632 C 119.921 125.689 125.25 142.794 134.157 140.007 C 135.276 139.657 136.794 138.585 137.531 137.624 Z"
        fill="#000000"
        stroke-width="12"/>
</svg>
